X: 1
T: Keep your feet still Geordie hinny
M: 4:4
L: ¼
Z: Contributed 2015-06-01 20:39:49 by noel jackson noeljackson@sky.com
K: G
||BG |"G"ddde  |"G" dcBA  |"C" cdef |"C" g2fe |!
|"G" dddd |"G"edBG  |"D" A2-A2-  |"D" A2BG |!
|"G" ddde  |"G"dcBA   |"C" cdef  |"C" g2fe  |!
|"D7"ddfe    |"D7" dcBA   |"G"G2-G2-  |"G" G2    ||!
||AB |"D7"cccc  |"D7" cd2c  |"G"  cBB_B|"G" B2Bc |!
|"G" dd^cd |"G"edBG |"D" A2-A2-  |"D" A2Bc |!
|"G" ddde  |"G"dcBG  |"C" cdef  |"C"  g2fe  |!
|"D7"ddf3/2e/   |"D7" dcBA  |"G"G2-G2-  |"G" G2  | |!

